F[BALLADE
CUT[Der Scheintod
    Sur le pont d'Avignon]
CNR[j'ai oui chanter la belle,]
REG[Mitteleuropa, Frankreich]
SRC[3, S. 124
    1889]
KEY[Q3058I 16  D 6/8]
MEL[1_  1__.2_3b_4_  5___0_
    5_  +1__.+1_7b_+1_  7b__6b_5_0_
    56b  7b__.+1_5_4_  3b__.^__
    4_  5__.4_1_4_  3b__2_1__ //] >>
FCT[Hochzeits - Lied]
CMT[Melodievergleich zu Q0058G, anderes Lied.]
